src/spinner.svg

<svg width="70" height="70" viewBox="0 0 70 70" fill="none" xmlns="http://www.w3.org/2000/svg">
<g filter="url(#filter0_f_433_676)">
<circle cx="35" cy="35" r="15" fill="url(#paint0_radial_433_676)" fill-opacity="0.1"/>
</g>
<path d="M35.2126 24.0211C37.4872 23.6541 37.0887 28.2004 36.6638 32.0485C39.0283 29.1725 40.7339 26.4085 42.5798 27.7536C44.3616 29.0522 41.3106 31.7166 38.4607 34.0006C42.1634 33.6342 45.3217 32.8664 45.322 35.4967C45.322 37.4812 42.235 37.1147 38.4177 36.6491C41.2756 39.0002 44.1131 40.6558 42.2233 42.5456C40.777 43.9916 38.8363 41.4113 36.4362 38.3268C36.7808 42.4187 37.7024 46.0005 34.9773 46.0006C32.8976 46.0006 33.3998 42.4179 33.8923 38.1198C31.1677 41.2786 29.2945 44.7007 27.2966 42.7028C25.7955 41.2016 28.7647 39.0357 32.1569 36.3522C28.2935 36.6769 24.8841 37.6442 24.5202 35.2614C24.1689 32.9603 28.5775 33.3936 32.2458 33.8239C29.449 31.5249 26.6671 29.9094 28.0515 28.0407C29.379 26.2488 31.9445 29.2482 34.114 31.9948C33.782 27.9522 32.8485 24.4028 35.2126 24.0211Z" fill="white"/>
<defs>
<filter id="filter0_f_433_676" x="0" y="0" width="70" height="70" filterUnits="userSpaceOnUse" color-interpolation-filters="sRGB">
<feFlood flood-opacity="0" result="BackgroundImageFix"/>
<feBlend mode="normal" in="SourceGraphic" in2="BackgroundImageFix" result="shape"/>
<feGaussianBlur stdDeviation="10" result="effect1_foregroundBlur_433_676"/>
</filter>
<radialGradient id="paint0_radial_433_676" cx="0" cy="0" r="1" gradientUnits="userSpaceOnUse" gradientTransform="translate(35 35) rotate(90) scale(15)">
<stop stop-color="#313131"/>
<stop offset="1" stop-color="#979797"/>
</radialGradient>
</defs>
</svg>

<svg xmlns="http://www.w3.org/2000/svg" width="70" height="70" fill="none"><g filter="url(#a)"><circle cx="35" cy="35" r="15" fill="url(#b)" fill-opacity=".1"/></g><path fill="#fff" d="M35.213 24.021c2.274-.367 1.876 4.18 1.45 8.027 2.365-2.876 4.07-5.64 5.917-4.294 1.782 1.298-1.27 3.963-4.12 6.247 3.703-.367 6.862-1.135 6.862 1.496 0 1.984-3.087 1.618-6.904 1.152 2.858 2.351 5.695 4.007 3.805 5.897-1.446 1.446-3.387-1.135-5.787-4.22.345 4.093 1.266 7.675-1.459 7.675-2.08 0-1.577-3.583-1.085-7.881-2.724 3.159-4.598 6.58-6.595 4.583-1.502-1.501 1.468-3.667 4.86-6.35-3.863.324-7.273 1.291-7.637-1.092-.351-2.3 4.058-1.867 7.726-1.437-2.797-2.3-5.579-3.915-4.195-5.783 1.328-1.792 3.894 1.207 6.063 3.954-.332-4.043-1.265-7.592 1.099-7.974Z"/><defs><radialGradient id="b" cx="0" cy="0" r="1" gradientTransform="matrix(0 15 -15 0 35 35)" gradientUnits="userSpaceOnUse"><stop stop-color="#313131"/><stop offset="1" stop-color="#979797"/></radialGradient><filter id="a" width="70" height="70" x="0" y="0" color-interpolation-filters="sRGB" filterUnits="userSpaceOnUse"><feFlood flood-opacity="0" result="BackgroundImageFix"/><feBlend in="SourceGraphic" in2="BackgroundImageFix" result="shape"/><feGaussianBlur result="effect1_foregroundBlur_433_676" stdDeviation="10"/></filter></defs></svg>
